svg/color/evdc.svg

<?xml version="1.0" encoding="UTF-8" ?>
<!DOCTYPE svg PUBLIC "-//W3C//DTD SVG 1.1//EN" "http://www.w3.org/Graphics/SVG/1.1/DTD/svg11.dtd">
<svg width="250pt" height="250pt" viewBox="0 0 250 250" version="1.1" xmlns="http://www.w3.org/2000/svg">
<g id="#ffffffff">
<path fill="#ffffff" opacity="1.00" d=" M 0.00 0.00 L 108.92 0.00 C 102.09 2.05 94.93 2.81 88.21 5.28 C 56.82 14.85 29.63 37.31 14.37 66.36 C 9.66 74.95 6.38 84.25 3.63 93.63 C 2.11 98.61 1.72 103.87 0.00 108.81 L 0.00 0.00 Z" />
<path fill="#ffffff" opacity="1.00" d=" M 141.23 0.00 L 250.00 0.00 L 250.00 109.94 C 247.99 104.22 247.67 98.09 245.73 92.34 C 243.54 85.59 241.28 78.84 238.53 72.29 C 234.33 63.30 228.80 54.98 222.85 47.06 C 212.65 35.21 201.22 24.02 187.32 16.58 C 177.32 10.41 166.13 6.58 154.92 3.28 C 150.37 2.11 145.66 1.61 141.23 0.00 Z" />
<path fill="#ffffff" opacity="1.00" d=" M 95.69 50.82 C 99.14 49.95 102.86 49.95 106.31 50.82 C 112.01 52.95 116.99 58.08 117.59 64.33 C 106.54 64.59 95.48 64.59 84.43 64.33 C 84.89 58.02 90.00 52.95 95.69 50.82 Z" />
<path fill="#ffffff" opacity="1.00" d=" M 143.41 50.61 C 147.56 49.94 152.23 49.77 155.95 52.07 C 160.40 54.63 164.10 59.05 164.56 64.32 C 153.51 64.61 142.44 64.56 131.38 64.35 C 131.89 57.79 137.31 52.44 143.41 50.61 Z" />
<path fill="#ffffff" opacity="1.00" d=" M 76.12 67.74 C 91.40 67.12 106.71 67.64 122.00 67.48 C 129.85 67.61 137.72 67.17 145.56 67.73 C 143.17 71.51 139.86 74.57 136.95 77.94 C 126.68 89.67 116.19 101.20 105.92 112.93 C 103.17 116.13 100.00 119.00 97.82 122.65 C 104.91 122.89 112.02 122.42 119.10 122.93 C 113.31 135.22 106.12 146.83 99.94 158.94 C 98.95 160.29 98.30 163.21 96.06 162.23 C 87.39 159.09 81.43 151.03 78.14 142.70 C 76.74 139.67 76.14 136.35 76.20 133.02 C 76.09 111.26 76.25 89.50 76.12 67.74 Z" />
<path fill="#ffffff" opacity="1.00" d=" M 146.01 67.76 C 155.62 67.24 165.28 67.36 174.90 67.71 C 174.79 88.47 174.89 109.23 174.86 129.99 C 175.53 142.38 168.47 154.51 158.31 161.29 C 153.67 164.76 147.68 163.38 142.38 164.51 C 139.65 165.24 138.45 168.36 138.57 170.96 C 138.51 184.89 138.86 198.83 138.79 212.77 C 130.84 212.78 122.89 212.72 114.93 212.80 C 114.23 198.56 114.95 184.28 114.59 170.03 C 114.54 167.06 112.02 164.65 109.33 163.78 C 106.12 163.30 102.85 163.51 99.62 163.18 C 100.45 161.86 101.28 160.51 102.49 159.50 C 116.50 147.50 130.48 135.47 144.51 123.48 C 147.73 120.50 151.51 118.08 154.13 114.50 C 144.92 114.37 135.70 114.75 126.50 114.31 C 130.23 104.10 135.04 94.32 139.23 84.29 C 141.42 78.75 144.44 73.53 146.01 67.76 Z" />
<path fill="#ffffff" opacity="1.00" d=" M 245.66 157.61 C 247.64 151.61 248.07 145.24 250.00 139.22 L 250.00 250.00 L 139.12 250.00 C 143.40 248.66 147.85 248.03 152.23 247.10 C 158.10 245.69 163.82 243.74 169.48 241.67 C 195.12 232.12 216.82 213.46 231.55 190.57 C 237.48 180.17 242.36 169.14 245.66 157.61 Z" />
<path fill="#ffffff" opacity="1.00" d=" M 0.00 141.08 C 0.84 143.75 1.56 146.46 2.09 149.22 C 7.02 175.10 20.81 199.10 40.28 216.79 C 55.87 231.86 75.99 241.46 96.79 246.96 C 101.14 247.92 105.59 248.45 109.79 250.00 L 0.00 250.00 L 0.00 141.08 Z" />
</g>
<g id="#68be5dff">
<path fill="#68be5d" opacity="1.00" d=" M 108.92 0.00 L 141.23 0.00 C 145.66 1.61 150.37 2.11 154.92 3.28 C 166.13 6.58 177.32 10.41 187.32 16.58 C 201.22 24.02 212.65 35.21 222.85 47.06 C 228.80 54.98 234.33 63.30 238.53 72.29 C 241.28 78.84 243.54 85.59 245.73 92.34 C 247.67 98.09 247.99 104.22 250.00 109.94 L 250.00 139.22 C 248.07 145.24 247.64 151.61 245.66 157.61 C 242.36 169.14 237.48 180.17 231.55 190.57 C 216.82 213.46 195.12 232.12 169.48 241.67 C 163.82 243.74 158.10 245.69 152.23 247.10 C 147.85 248.03 143.40 248.66 139.12 250.00 L 109.79 250.00 C 105.59 248.45 101.14 247.92 96.79 246.96 C 75.99 241.46 55.87 231.86 40.28 216.79 C 20.81 199.10 7.02 175.10 2.09 149.22 C 1.56 146.46 0.84 143.75 0.00 141.08 L 0.00 108.81 C 1.72 103.87 2.11 98.61 3.63 93.63 C 6.38 84.25 9.66 74.95 14.37 66.36 C 29.63 37.31 56.82 14.85 88.21 5.28 C 94.93 2.81 102.09 2.05 108.92 0.00 M 95.69 50.82 C 90.00 52.95 84.89 58.02 84.43 64.33 C 95.48 64.59 106.54 64.59 117.59 64.33 C 116.99 58.08 112.01 52.95 106.31 50.82 C 102.86 49.95 99.14 49.95 95.69 50.82 M 143.41 50.61 C 137.31 52.44 131.89 57.79 131.38 64.35 C 142.44 64.56 153.51 64.61 164.56 64.32 C 164.10 59.05 160.40 54.63 155.95 52.07 C 152.23 49.77 147.56 49.94 143.41 50.61 M 76.12 67.74 C 76.25 89.50 76.09 111.26 76.20 133.02 C 76.14 136.35 76.74 139.67 78.14 142.70 C 81.43 151.03 87.39 159.09 96.06 162.23 C 98.30 163.21 98.95 160.29 99.94 158.94 C 106.12 146.83 113.31 135.22 119.10 122.93 C 112.02 122.42 104.91 122.89 97.82 122.65 C 100.00 119.00 103.17 116.13 105.92 112.93 C 116.19 101.20 126.68 89.67 136.95 77.94 C 139.86 74.57 143.17 71.51 145.56 67.73 C 137.72 67.17 129.85 67.61 122.00 67.48 C 106.71 67.64 91.40 67.12 76.12 67.74 M 146.01 67.76 C 144.44 73.53 141.42 78.75 139.23 84.29 C 135.04 94.32 130.23 104.10 126.50 114.31 C 135.70 114.75 144.92 114.37 154.13 114.50 C 151.51 118.08 147.73 120.50 144.51 123.48 C 130.48 135.47 116.50 147.50 102.49 159.50 C 101.28 160.51 100.45 161.86 99.62 163.18 C 102.85 163.51 106.12 163.30 109.33 163.78 C 112.02 164.65 114.54 167.06 114.59 170.03 C 114.95 184.28 114.23 198.56 114.93 212.80 C 122.89 212.72 130.84 212.78 138.79 212.77 C 138.86 198.83 138.51 184.89 138.57 170.96 C 138.45 168.36 139.65 165.24 142.38 164.51 C 147.68 163.38 153.67 164.76 158.31 161.29 C 168.47 154.51 175.53 142.38 174.86 129.99 C 174.89 109.23 174.79 88.47 174.90 67.71 C 165.28 67.36 155.62 67.24 146.01 67.76 Z" />
</g>
</svg>

<?xml version="1.0" encoding="utf-8"?>
<!-- Generator: Adobe Illustrator 26.0.3, SVG Export Plug-In . SVG Version: 6.00 Build 0)  -->
<svg version="1.1" id="Layer_1" xmlns="http://www.w3.org/2000/svg" xmlns:xlink="http://www.w3.org/1999/xlink" x="0px" y="0px"
	 viewBox="0 0 250 250" style="enable-background:new 0 0 250 250;" xml:space="preserve">
<style type="text/css">
	.st0{fill:#FFFFFF;}
	.st1{fill:#68BE5D;}
</style>
<g id="_x23_ffffffff">
	<path class="st0" d="M95.7,50.8c3.4-0.9,7.2-0.9,10.6,0c5.7,2.1,10.7,7.3,11.3,13.5c-11,0.3-22.1,0.3-33.2,0
		C84.9,58,90,53,95.7,50.8z"/>
	<path class="st0" d="M143.4,50.6c4.1-0.7,8.8-0.8,12.5,1.5c4.4,2.6,8.2,7,8.6,12.2c-11.1,0.3-22.1,0.2-33.2,0
		C131.9,57.8,137.3,52.4,143.4,50.6z"/>
	<path class="st0" d="M76.1,67.7c15.3-0.6,30.6-0.1,45.9-0.3c7.9,0.1,15.7-0.3,23.6,0.2c-2.4,3.8-5.7,6.8-8.6,10.2
		c-10.3,11.7-20.8,23.3-31,35c-2.8,3.2-5.9,6.1-8.1,9.7c7.1,0.2,14.2-0.2,21.3,0.3c-5.8,12.3-13,23.9-19.2,36
		c-1,1.3-1.6,4.3-3.9,3.3c-8.7-3.1-14.6-11.2-17.9-19.5c-1.4-3-2-6.3-1.9-9.7C76.1,111.3,76.2,89.5,76.1,67.7z"/>
	<path class="st0" d="M146,67.8c9.6-0.5,19.3-0.4,28.9-0.1c-0.1,20.8,0,41.5,0,62.3c0.7,12.4-6.4,24.5-16.6,31.3
		c-4.6,3.5-10.6,2.1-15.9,3.2c-2.7,0.7-3.9,3.9-3.8,6.5c-0.1,13.9,0.3,27.9,0.2,41.8c-7.9,0-15.9-0.1-23.9,0
		c-0.7-14.2,0-28.5-0.3-42.8c0-3-2.6-5.4-5.3-6.2c-3.2-0.5-6.5-0.3-9.7-0.6c0.8-1.3,1.7-2.7,2.9-3.7c14-12,28-24,42-36
		c3.2-3,7-5.4,9.6-9c-9.2-0.1-18.4,0.2-27.6-0.2c3.7-10.2,8.5-20,12.7-30C141.4,78.8,144.4,73.5,146,67.8z"/>
</g>
<g id="_x23_68be5dff">
	<path class="st1" d="M108.9,0h32.3c4.4,1.6,9.1,2.1,13.7,3.3c11.2,3.3,22.4,7.1,32.4,13.3c13.9,7.4,25.3,18.6,35.5,30.5
		c5.9,7.9,11.5,16.2,15.7,25.2c2.8,6.5,5,13.3,7.2,20c1.9,5.8,2.3,11.9,4.3,17.6v29.3c-1.9,6-2.4,12.4-4.3,18.4
		c-3.3,11.5-8.2,22.6-14.1,33c-14.7,22.9-36.4,41.5-62.1,51.1c-5.7,2.1-11.4,4-17.2,5.4c-4.4,0.9-8.8,1.6-13.1,2.9h-29.3
		c-4.2-1.6-8.7-2.1-13-3c-20.8-5.5-40.9-15.1-56.5-30.2C20.8,199.1,7,175.1,2.1,149.2c-0.5-2.8-1.2-5.5-2.1-8.1v-32.3
		c1.7-4.9,2.1-10.2,3.6-15.2c2.8-9.4,6-18.7,10.7-27.3c15.3-29,42.5-51.5,73.8-61.1C94.9,2.8,102.1,2,108.9,0 M95.7,50.8
		C90,53,84.9,58,84.4,64.3c11.1,0.3,22.1,0.3,33.2,0C117,58.1,112,53,106.3,50.8C102.9,50,99.1,50,95.7,50.8 M143.4,50.6
		c-6.1,1.8-11.5,7.2-12,13.7c11.1,0.2,22.1,0.3,33.2,0c-0.5-5.3-4.2-9.7-8.6-12.2C152.2,49.8,147.6,49.9,143.4,50.6 M76.1,67.7
		c0.1,21.8,0,43.5,0.1,65.3c-0.1,3.3,0.5,6.6,1.9,9.7c3.3,8.3,9.2,16.4,17.9,19.5c2.2,1,2.9-1.9,3.9-3.3c6.2-12.1,13.4-23.7,19.2-36
		c-7.1-0.5-14.2,0-21.3-0.3c2.2-3.7,5.3-6.5,8.1-9.7c10.3-11.7,20.8-23.3,31-35c2.9-3.4,6.2-6.4,8.6-10.2
		c-7.8-0.6-15.7-0.1-23.6-0.2C106.7,67.6,91.4,67.1,76.1,67.7 M146,67.8c-1.6,5.8-4.6,11-6.8,16.5c-4.2,10-9,19.8-12.7,30
		c9.2,0.4,18.4,0.1,27.6,0.2c-2.6,3.6-6.4,6-9.6,9c-14,12-28,24-42,36c-1.2,1-2,2.4-2.9,3.7c3.2,0.3,6.5,0.1,9.7,0.6
		c2.7,0.9,5.2,3.3,5.3,6.2c0.4,14.2-0.4,28.5,0.3,42.8c8-0.1,15.9,0,23.9,0c0.1-13.9-0.3-27.9-0.2-41.8c-0.1-2.6,1.1-5.7,3.8-6.5
		c5.3-1.1,11.3,0.2,15.9-3.2c10.2-6.8,17.2-18.9,16.6-31.3c0-20.8-0.1-41.5,0-62.3C165.3,67.4,155.6,67.2,146,67.8z"/>
</g>
</svg>
